img/ui/icons/Calendar.svg

<svg width="25" height="25" viewBox="0 0 25 25" fill="none" xmlns="http://www.w3.org/2000/svg">
<path d="M19.25 4.76367H5.25C4.14543 4.76367 3.25 5.6591 3.25 6.76367V20.7637C3.25 21.8682 4.14543 22.7637 5.25 22.7637H19.25C20.3546 22.7637 21.25 21.8682 21.25 20.7637V6.76367C21.25 5.6591 20.3546 4.76367 19.25 4.76367Z" stroke="currentColor" stroke-width="1.5" stroke-linecap="round" stroke-linejoin="round"/>
<path d="M16.25 2.76367V6.76367" stroke="currentColor" stroke-width="1.5" stroke-linecap="round" stroke-linejoin="round"/>
<path d="M8.25 2.76367V6.76367" stroke="currentColor" stroke-width="1.5" stroke-linecap="round" stroke-linejoin="round"/>
<path d="M3.25 10.7637H21.25" stroke="currentColor" stroke-width="1.5" stroke-linecap="round" stroke-linejoin="round"/>
<path d="M9.25 16.7637L11.25 18.7637L15.25 14.7637" stroke="currentColor" stroke-width="1.5" stroke-linecap="round" stroke-linejoin="round"/>
</svg>

<svg width="25" height="25" fill="none" xmlns="http://www.w3.org/2000/svg"><path d="M19.25 4.764h-14a2 2 0 0 0-2 2v14a2 2 0 0 0 2 2h14a2 2 0 0 0 2-2v-14a2 2 0 0 0-2-2ZM16.25 2.764v4M8.25 2.764v4M3.25 10.764h18" stroke="currentColor" stroke-width="1.5" stroke-linecap="round" stroke-linejoin="round"/><path d="m9.25 16.764 2 2 4-4" stroke="currentColor" stroke-width="1.5" stroke-linecap="round" stroke-linejoin="round"/></svg>
